app/dist/common/images/bankwell-financial.svg

<svg height="18" viewBox="0 0 18 18" width="18" xmlns="http://www.w3.org/2000/svg" xmlns:xlink="http://www.w3.org/1999/xlink"><linearGradient id="a"><stop offset="0" stop-color="#517abd"/><stop offset=".27" stop-color="#7ea5d7"/><stop offset=".73" stop-color="#7da4d7"/><stop offset="1" stop-color="#5b82c2"/></linearGradient><linearGradient id="b" gradientUnits="userSpaceOnUse" x1="6.17" x2="6.17" xlink:href="#a" y1="6" y2="12"/><linearGradient id="c" gradientUnits="userSpaceOnUse" x1="6" x2="12" xlink:href="#a" y1="11.83" y2="11.83"/><linearGradient id="d" gradientUnits="userSpaceOnUse" x1="11.83" x2="11.83" xlink:href="#a" y1="12" y2="6"/><linearGradient id="e" gradientUnits="userSpaceOnUse" x1="11.93" x2="5.93" xlink:href="#a" y1="6.17" y2="6.17"/><path d="m0 0h18v18h-18z" fill="#f0f3fa"/><path d="m8.33 9.03a5.1 5.1 0 0 0 -4.33-3.03v2.48a3.1 3.1 0 0 1 1.3.5c-.54.32-1.1.47-1.3.5v2.52c1.1-.14 3.53-.94 4.33-2.97z" fill="url(#b)"/><path d="m7.04 7.28c.49.44.94 1 1.3 1.75a4.04 4.04 0 0 1 -1.18 1.59 5.52 5.52 0 0 0 -1.82-1.64 4 4 0 0 0 1.7-1.7z" fill="#008b3e"/><path d="m9.03 9.67a5.1 5.1 0 0 0 -3.03 4.33h2.48a3.1 3.1 0 0 1 .5-1.3c.32.54.47 1.1.5 1.3h2.52c-.14-1.1-.94-3.53-2.97-4.33z" fill="url(#c)"/><path d="m7.28 10.96c.44-.49 1-.94 1.75-1.3.65.27 1.17.69 1.59 1.18-.43.3-1.22.99-1.64 1.82a4 4 0 0 0 -1.7-1.7z" fill="#008b3e"/><path d="m9.67 8.97a5.1 5.1 0 0 0 4.33 3.03v-2.48a3.1 3.1 0 0 1 -1.3-.5c.54-.32 1.1-.47 1.3-.5v-2.52c-1.1.14-3.53.94-4.33 2.97z" fill="url(#d)"/><path d="m10.96 10.72c-.49-.44-.94-1-1.3-1.75.27-.65.69-1.17 1.18-1.59.3.43.99 1.22 1.82 1.64a4 4 0 0 0 -1.7 1.7z" fill="#008b3e"/><path d="m8.9 8.33a5.1 5.1 0 0 0 3.04-4.33h-2.48a3.1 3.1 0 0 1 -.5 1.31 4.37 4.37 0 0 1 -.51-1.31h-2.52c.15 1.1.94 3.53 2.98 4.33z" fill="url(#e)"/><path d="m10.65 7.04c-.43.49-1 .94-1.74 1.3a4.04 4.04 0 0 1 -1.6-1.18c.43-.3 1.22-.99 1.64-1.82a4 4 0 0 0 1.7 1.7z" fill="#008b3e"/></svg>

<!-- by TradingView --><svg width="18" height="18" viewBox="0 0 18 18" xmlns="http://www.w3.org/2000/svg"><path fill="#F0F3FA" d="M0 0h18v18H0z"/><path d="M8.33 9.03A5.1 5.1 0 0 0 4 6v2.48a3.1 3.1 0 0 1 1.3.5c-.54.32-1.1.47-1.3.5V12c1.1-.14 3.53-.94 4.33-2.97Z" fill="url(#ad2e0mq1g)"/><path d="M7.04 7.28c.49.44.94 1 1.3 1.75a4.04 4.04 0 0 1-1.18 1.59 5.52 5.52 0 0 0-1.82-1.64 4 4 0 0 0 1.7-1.7Z" fill="#008B3E"/><path d="M9.03 9.67A5.1 5.1 0 0 0 6 14h2.48a3.1 3.1 0 0 1 .5-1.3c.32.54.47 1.1.5 1.3H12c-.14-1.1-.94-3.53-2.97-4.33Z" fill="url(#bd2e0mq1g)"/><path d="M7.28 10.96c.44-.49 1-.94 1.75-1.3.65.27 1.17.69 1.59 1.18-.43.3-1.22.99-1.64 1.82a4 4 0 0 0-1.7-1.7Z" fill="#008B3E"/><path d="M9.67 8.97A5.1 5.1 0 0 0 14 12V9.52a3.1 3.1 0 0 1-1.3-.5c.54-.32 1.1-.47 1.3-.5V6c-1.1.14-3.53.94-4.33 2.97Z" fill="url(#cd2e0mq1g)"/><path d="M10.96 10.72c-.49-.44-.94-1-1.3-1.75.27-.65.69-1.17 1.18-1.59.3.43.99 1.22 1.82 1.64a4 4 0 0 0-1.7 1.7Z" fill="#008B3E"/><path d="M8.9 8.33A5.1 5.1 0 0 0 11.94 4H9.46a3.1 3.1 0 0 1-.5 1.31A4.37 4.37 0 0 1 8.45 4H5.93c.15 1.1.94 3.53 2.98 4.33Z" fill="url(#dd2e0mq1g)"/><path d="M10.65 7.04c-.43.49-1 .94-1.74 1.3a4.04 4.04 0 0 1-1.6-1.18c.43-.3 1.22-.99 1.64-1.82a4 4 0 0 0 1.7 1.7Z" fill="#008B3E"/><defs><linearGradient id="ad2e0mq1g" x1="6.17" y1="6" x2="6.17" y2="12" gradientUnits="userSpaceOnUse"><stop stop-color="#517ABD"/><stop offset=".27" stop-color="#7EA5D7"/><stop offset=".73" stop-color="#7DA4D7"/><stop offset="1" stop-color="#5B82C2"/></linearGradient><linearGradient id="bd2e0mq1g" x1="6" y1="11.83" x2="12" y2="11.83" gradientUnits="userSpaceOnUse"><stop stop-color="#517ABD"/><stop offset=".27" stop-color="#7EA5D7"/><stop offset=".73" stop-color="#7DA4D7"/><stop offset="1" stop-color="#5B82C2"/></linearGradient><linearGradient id="cd2e0mq1g" x1="11.83" y1="12" x2="11.83" y2="6" gradientUnits="userSpaceOnUse"><stop stop-color="#517ABD"/><stop offset=".27" stop-color="#7EA5D7"/><stop offset=".73" stop-color="#7DA4D7"/><stop offset="1" stop-color="#5B82C2"/></linearGradient><linearGradient id="dd2e0mq1g" x1="11.93" y1="6.17" x2="5.93" y2="6.17" gradientUnits="userSpaceOnUse"><stop stop-color="#517ABD"/><stop offset=".27" stop-color="#7EA5D7"/><stop offset=".73" stop-color="#7DA4D7"/><stop offset="1" stop-color="#5B82C2"/></linearGradient></defs></svg>
